svg/nic.svg

<?xml version="1.0" encoding="UTF-8"?>
<svg xmlns="http://www.w3.org/2000/svg" xmlns:xlink="http://www.w3.org/1999/xlink" width="32" height="32" viewBox="0 0 32 32">
<path fill-rule="nonzero" fill="rgb(0%, 0%, 0%)" fill-opacity="1" d="M 1.28125 3.839844 L 1.28125 5.121094 L 3.839844 5.121094 C 4.203125 5.121094 4.480469 5.398438 4.480469 5.761719 L 4.480469 27.519531 L 5.761719 27.519531 L 5.761719 24.320312 L 8.320312 24.320312 L 8.320312 22.398438 C 8.320312 22.046875 8.609375 21.761719 8.960938 21.761719 L 15.359375 21.761719 C 15.710938 21.761719 15.996094 22.046875 16 22.398438 L 16 24.320312 L 30.078125 24.320312 L 30.078125 9.601562 L 5.761719 9.601562 L 5.761719 5.761719 C 5.757812 4.703125 4.898438 3.847656 3.839844 3.839844 Z M 19.839844 11.519531 L 21.121094 11.519531 L 21.121094 13.441406 L 19.839844 13.441406 L 19.839844 14.71875 L 17.921875 14.71875 L 17.921875 13.441406 L 19.839844 13.441406 Z M 22.398438 11.519531 L 23.679688 11.519531 L 23.679688 13.441406 L 22.398438 13.441406 Z M 24.960938 11.519531 L 26.238281 11.519531 L 26.238281 13.441406 L 28.160156 13.441406 L 28.160156 14.71875 L 26.238281 14.71875 L 26.238281 13.441406 L 24.960938 13.441406 Z M 13.441406 12.800781 C 14.148438 12.800781 14.71875 13.371094 14.71875 14.078125 C 14.71875 14.597656 14.40625 15.0625 13.929688 15.261719 C 13.449219 15.460938 12.898438 15.351562 12.53125 14.984375 C 12.167969 14.621094 12.058594 14.066406 12.257812 13.589844 C 12.453125 13.109375 12.921875 12.800781 13.441406 12.800781 M 5.761719 13.441406 L 8.320312 13.441406 L 8.320312 18.558594 L 5.761719 18.558594 Z M 17.921875 16 L 19.839844 16 L 19.839844 17.28125 L 17.921875 17.28125 Z M 26.238281 16 L 28.160156 16 L 28.160156 17.28125 L 26.238281 17.28125 Z M 17.921875 18.558594 L 19.839844 18.558594 L 19.839844 19.839844 L 21.121094 19.839844 L 21.121094 21.761719 L 19.839844 21.761719 L 19.839844 19.839844 L 17.921875 19.839844 Z M 26.238281 18.558594 L 28.160156 18.558594 L 28.160156 19.839844 L 26.238281 19.839844 L 26.238281 21.761719 L 24.960938 21.761719 L 24.960938 19.839844 L 26.238281 19.839844 Z M 22.398438 19.839844 L 23.679688 19.839844 L 23.679688 21.761719 L 22.398438 21.761719 Z M 22.398438 19.839844 "/>
</svg>

<svg role="img" viewBox="0 0 32 32" height="32" width="32" xmlns="http://www.w3.org/2000/svg"><path d="M1.281 3.84v1.28H3.84c.363 0 .64.277.64.64v21.76h1.282v-3.2H8.32v-1.922a.64.64 0 0 1 .64-.636h6.4a.64.64 0 0 1 .64.636v1.922h14.078V9.602H5.762v-3.84A1.933 1.933 0 0 0 3.84 3.84Zm18.559 7.68h1.281v1.921H19.84v1.278h-1.918V13.44h1.918Zm2.558 0h1.282v1.921h-1.282Zm2.563 0h1.277v1.921h1.922v1.278h-1.922V13.44h-1.277ZM13.44 12.8c.707 0 1.278.571 1.278 1.278a1.28 1.28 0 1 1-1.277-1.277m-7.68.641h2.56v5.118H5.76ZM17.922 16h1.919v1.281h-1.918Zm8.317 0h1.922v1.281h-1.922Zm-8.316 2.559h1.918v1.28h1.281v1.923H19.84V19.84h-1.918Zm8.316 0h1.922v1.28h-1.922v1.923h-1.277V19.84h1.277Zm-3.84 1.28h1.282v1.923h-1.282Zm0 0"/></svg>
